svgs/sharp-regular/game-board.svg

<svg xmlns="http://www.w3.org/2000/svg" viewBox="0 0 448 512"><!--! Font Awesome Pro 6.6.0 by @fontawesome - https://fontawesome.com License - https://fontawesome.com/license (Commercial License) Copyright 2024 Fonticons, Inc. --><path d="M400 80l0 352L48 432 48 80l352 0zM48 32L0 32 0 80 0 432l0 48 48 0 352 0 48 0 0-48 0-352 0-48-48 0L48 32zM304 96l-80 0 0 80-80 0 0-80L64 96l0 80 80 0 0 80-80 0 0 80 80 0 0 80 80 0 0-80 80 0 0 80 80 0 0-80-80 0 0-80 80 0 0-80-80 0 0-80zM224 256l0 80-80 0 0-80 80 0zm0 0l0-80 80 0 0 80-80 0z"/></svg>

<svg xmlns="http://www.w3.org/2000/svg" viewBox="0 0 448 512"><!--! Font Awesome Pro 6.4.0 by @fontawesome - https://fontawesome.com License - https://fontawesome.com/license (Commercial License) Copyright 2023 Fonticons, Inc. --><path d="M400 80V432H48V80H400zM48 32H0V80 432v48H48 400h48V432 80 32H400 48zM304 96H224v80H144V96H64v80h80v80H64v80h80v80h80V336h80v80h80V336H304V256h80V176H304V96zM224 256v80H144V256h80zm0 0V176h80v80H224z"/></svg>
